src/main/resources/icons/DartIcons/icons/pubServeToolWindow.svg

<svg xmlns="http://www.w3.org/2000/svg" width="13" height="13" viewBox="0 0 13 13">
  <g fill="none" fill-rule="evenodd">
    <rect width="9" height="2.8" x="2" y="1.2" fill="#6E6E6E"/>
    <path fill="#6E6E6E" d="M6.45349495 4.79999995C5.41312153 5.40057723 4.63551333 6.40549103 4.33541181 7.5999999L2 7.5999999 2 4.79999995 6.45349495 4.79999995zM10.9465047 4.79999995L11 4.79999995 11 4.83137513C10.9822468 4.82079764 10.9644147 4.81033888 10.9465047 4.79999995zM4.20984117 8.39999986C4.20331461 8.49915693 4.19999981 8.59919126 4.19999981 8.69999981 4.19999981 9.62507313 4.47913564 10.4849508 4.95777433 11.1999998L2 11.1999998 2 8.39999986 4.20984117 8.39999986zM11.5598072 11.9872442L11.2476186 12.92381 8.42857115 13 7.03389827 11.4785388 7.03389827 7.46133531 11.5598072 11.9872442zM11.9213623 11.5817682L7.37349233 7.03389827 11.4785387 7.03389827 13 8.42857128 12.92381 11.247619 11.9213623 11.5817682zM6.49152538 6.95318816L6.49152538 10.6000316 6.14285717 10.4857141 5 9.1904761 6.49152538 6.95318816zM10.6000313 6.49152538L6.95318813 6.49152538 9.19047592 5 10.4857139 6.14285717 10.6000313 6.49152538z"/>
  </g>
</svg>

<svg xmlns="http://www.w3.org/2000/svg" width="13" height="13" viewBox="0 0 13 13"><rect id="frame" width="13" height="13" fill="none"/><g fill="#6E6E6E" fill-rule="evenodd"><path d="M2 1.2h9V4H2z"/><path d="M6.453 4.8a4.509 4.509 0 0 0-2.118 2.8H2V4.8h4.453zm4.494 0H11v.031a4.497 4.497 0 0 0-.053-.031zM4.21 8.4a4.48 4.48 0 0 0 .748 2.8H2V8.4h2.21zm7.35 3.587l-.312.937-2.82.076-1.394-1.521V7.46l4.526 4.526zm.361-.405L7.373 7.034h4.106L13 8.429l-.076 2.819-1.003.334zm-5.43-4.629V10.6l-.348-.114L5 9.19l1.492-2.237zm4.109-.461H6.953L9.19 5l1.296 1.143.114.349z"/></g></svg>
